!! 00000] TT[00
!! NN
!!!OTL: Suo luo lian
!!!ARE: Asia, China Fujian, Quanzhou
!! Ethnic Group: Han
!! II, 601
!!!SCT: C0268
!!!YEM: Copyright 1995, estate of Helmut Schaffrath.
**kern
*ICvox
*Ivox
*M2/4
*k[f#]
*G:
{4b
8a
8dd
=1
2b
=2
8a
8b
8a
8g
=3
2e}
=4
{8e
4e
8g
=5
2a
=6
8a
4g
8a
=7
2e}
=8
{4b
8a
8dd
=9
8a
4b
8g
=10
8a
8g
8e
8g
=11
8a
8g
4a}
=12
{4a
8b
8dd
=13
8a
8b
8a
8g
=14
8e
4e
8g
=15
2a}
=16
{8a
4g
8a
=17
2e}
=18
{4e
8a
8b
=19
8g
8a
8r
8e
=20
8a
8g
8e
8a
=21
8g
8e
4e}
=22
{8e
4e
8g
=23
2a
=24
8a
4g
8a
=25
2e}
=26
{4b
8a
8dd
=27
8a
4b
8g
=28
8a
8g
8e
8g
=29
8a
8g
4a}
=30
{4a
8b
8dd
=31
8a
8b
8a
8g
=32
8e
4e
8g
=33
2a}
=34
{8a
4g
8a
=35
2e}
=36
{4e
8a
8b
=37
8g
8a
8r
8e
=38
8a
8g
8e
8a
=39
8g
8e
4e}
=40
{8e
4e
8g
=41
2a
=42
8a
4g
8a
=43
2e}
==
!!!AGN: Tanzlied, Gewu
!! urspruenglich zum xifu (Fest: Buddha waschen)
!!    Vorspiel weggelassen.
!!!ONB: ESAC (Essen Associative Code) Database: CHINA_058
!!!AMT: simple duple
!!!AIN: vox
!!!EED: Helmut Schaffrath
!!!EEV: 1.0
*-
